resources/svg/ms-word-o.svg

<svg width="15" height="15" viewBox="0 0 15 15" fill="none" xmlns="http://www.w3.org/2000/svg">
<path d="M3.5 9.5L3.01493 9.62127C3.06293 9.81327 3.21966 9.95889 3.41466 9.99266C3.60967 10.0264 3.80625 9.94202 3.91603 9.77735L3.5 9.5ZM4.5 8L4.91603 7.72265C4.82329 7.58355 4.66718 7.5 4.5 7.5C4.33282 7.5 4.17671 7.58355 4.08397 7.72265L4.5 8ZM5.5 9.5L5.08397 9.77735C5.19375 9.94202 5.39033 10.0264 5.58534 9.99266C5.78034 9.95889 5.93707 9.81327 5.98507 9.62127L5.5 9.5ZM1.5 4H7.5V3H1.5V4ZM8 4.5V10.5H9V4.5H8ZM7.5 11H1.5V12H7.5V11ZM1 10.5V4.5H0V10.5H1ZM1.5 11C1.22386 11 1 10.7761 1 10.5H0C0 11.3284 0.671573 12 1.5 12V11ZM8 10.5C8 10.7761 7.77614 11 7.5 11V12C8.32843 12 9 11.3284 9 10.5H8ZM7.5 4C7.77614 4 8 4.22386 8 4.5H9C9 3.67157 8.32843 3 7.5 3V4ZM1.5 3C0.671573 3 0 3.67157 0 4.5H1C1 4.22386 1.22386 4 1.5 4V3ZM2.01493 5.62127L3.01493 9.62127L3.98507 9.37873L2.98507 5.37873L2.01493 5.62127ZM3.91603 9.77735L4.91603 8.27735L4.08397 7.72265L3.08397 9.22265L3.91603 9.77735ZM4.08397 8.27735L5.08397 9.77735L5.91603 9.22265L4.91603 7.72265L4.08397 8.27735ZM5.98507 9.62127L6.98507 5.62127L6.01493 5.37873L5.01493 9.37873L5.98507 9.62127ZM3 3.5V1.5H2V3.5H3ZM3.5 1H13.5V0H3.5V1ZM14 1.5V13.5H15V1.5H14ZM13.5 14H3.5V15H13.5V14ZM3 13.5V11.5H2V13.5H3ZM3.5 14C3.22386 14 3 13.7761 3 13.5H2C2 14.3284 2.67157 15 3.5 15V14ZM14 13.5C14 13.7761 13.7761 14 13.5 14V15C14.3284 15 15 14.3284 15 13.5H14ZM13.5 1C13.7761 1 14 1.22386 14 1.5H15C15 0.671573 14.3284 0 13.5 0V1ZM3 1.5C3 1.22386 3.22386 1 3.5 1V0C2.67157 0 2 0.671573 2 1.5H3Z" fill="black"/>
</svg>

<svg viewBox="0 0 15 15" fill="none" xmlns="http://www.w3.org/2000/svg" fill="currentColor"><path d="M3.5 9.5l-.485.121a.5.5 0 00.901.156L3.5 9.5zm1-1.5l.416-.277a.5.5 0 00-.832 0L4.5 8zm1 1.5l-.416.277a.5.5 0 00.901-.156L5.5 9.5zM1.5 4h6V3h-6v1zm6.5.5v6h1v-6H8zM7.5 11h-6v1h6v-1zM1 10.5v-6H0v6h1zm.5.5a.5.5 0 01-.5-.5H0A1.5 1.5 0 001.5 12v-1zm6.5-.5a.5.5 0 01-.5.5v1A1.5 1.5 0 009 10.5H8zM7.5 4a.5.5 0 01.5.5h1A1.5 1.5 0 007.5 3v1zm-6-1A1.5 1.5 0 000 4.5h1a.5.5 0 01.5-.5V3zm.515 2.621l1 4 .97-.242-1-4-.97.242zm1.901 4.156l1-1.5-.832-.554-1 1.5.832.554zm.168-1.5l1 1.5.832-.554-1-1.5-.832.554zm1.901 1.344l1-4-.97-.242-1 4 .97.242zM3 3.5v-2H2v2h1zM3.5 1h10V0h-10v1zm10.5.5v12h1v-12h-1zM13.5 14h-10v1h10v-1zM3 13.5v-2H2v2h1zm.5.5a.5.5 0 01-.5-.5H2A1.5 1.5 0 003.5 15v-1zm10.5-.5a.5.5 0 01-.5.5v1a1.5 1.5 0 001.5-1.5h-1zM13.5 1a.5.5 0 01.5.5h1A1.5 1.5 0 0013.5 0v1zM3 1.5a.5.5 0 01.5-.5V0A1.5 1.5 0 002 1.5h1z" fill="currentColor"/></svg>
